<?xml version="1.0" encoding="UTF-8"?>
<map version="1.10" tiledversion="1.10.2" orientation="orthogonal" renderorder="right-down" width="60" height="40" tilewidth="32" tileheight="32" infinite="0" nextlayerid="4" nextobjectid="16">
 <properties>
  <property name="anguloLargada" type="float" value="0"/>
 </properties>
 <tileset firstgid="1" name="tileset" tilewidth="32" tileheight="32" tilecount="5" columns="5">
  <image source="tileset.png" width="160" height="32"/>
  <tile id="0">
   <properties>
    <property name="superficie" value="pasto"/>
   </properties>
  </tile>
  <tile id="1">
   <properties>
    <property name="superficie" value="pista"/>
   </properties>
  </tile>
  <tile id="2">
   <properties>
    <property name="superficie" value="muro"/>
   </properties>
  </tile>
  <tile id="3">
   <properties>
    <property name="superficie" value="pista"/>
   </properties>
  </tile>
  <tile id="4">
   <properties>
    <property name="superficie" value="pasto"/>
   </properties>
  </tile>
 </tileset>
 <layer id="1" name="suelo" width="60" height="40">
  <data encoding="csv">
5,5,5,5,5,5,5,5,5,5,5,5,5,5,5,5,5,5,5,5,5,5,5,5,5,5,5,5,5,5,5,5,5,5,5,5,5,5,5,5,5,5,5,5,5,5,5,5,5,5,5,5,5,5,5,5,5,5,5,5,
5,5,5,5,5,5,5,5,5,5,5,5,5,5,5,5,5,5,5,5,5,5,5,5,5,5,5,5,5,5,5,5,5,5,5,5,5,5,5,5,5,5,5,5,5,5,5,5,5,5,5,5,5,5,5,5,5,5,5,5,
5,5,5,5,5,5,5,5,5,5,5,5,5,5,3,3,3,3,3,3,3,3,3,3,3,3,3,3,3,3,3,3,3,3,3,3,3,3,3,3,3,3,3,3,3,3,5,5,5,5,5,5,5,5,5,5,5,5,5,5,
5,5,5,5,5,5,5,5,5,5,5,3,3,3,1,1,1,1,1,1,1,1,1,1,1,1,1,1,1,1,1,1,1,1,1,1,1,1,1,1,1,1,1,1,1,1,3,3,3,5,5,5,5,5,5,5,5,5,5,5,
5,5,5,5,5,5,5,5,5,3,3,1,1,1,1,1,1,1,1,1,1,1,1,1,1,1,1,1,1,1,1,1,1,1,1,1,1,1,1,1,1,1,1,1,1,1,1,1,1,3,3,5,5,5,5,5,5,5,5,5,
5,5,5,5,5,5,5,3,3,1,1,1,1,1,2,2,2,2,2,2,2,2,2,2,2,2,2,2,2,2,2,2,2,2,2,2,2,2,2,2,2,2,2,2,2,2,1,1,1,1,1,3,3,5,5,5,5,5,5,5,
5,5,5,5,5,5,3,3,1,1,1,2,2,2,2,2,2,2,2,2,2,2,2,2,2,2,2,2,2,2,2,2,2,2,2,2,2,2,2,2,2,2,2,2,2,2,2,2,2,1,1,1,3,3,5,5,5,5,5,5,
5,5,5,5,5,3,1,1,1,1,2,2,2,2,2,2,2,2,2,2,2,2,2,2,2,2,2,2,2,2,2,2,2,2,2,2,2,2,2,2,2,2,2,2,2,2,2,2,2,2,1,1,1,1,3,5,5,5,5,5,
5,5,5,5,3,1,1,1,2,2,2,2,2,2,2,2,2,2,2,2,2,2,2,2,2,2,2,2,2,2,2,2,2,2,2,2,2,2,2,2,2,2,2,2,2,2,2,2,2,2,2,2,1,1,1,3,5,5,5,5,
5,5,5,3,3,1,1,2,2,2,2,2,2,2,2,2,2,2,2,2,2,2,2,2,2,2,2,2,2,2,2,2,2,2,2,2,2,2,2,2,2,2,2,2,2,2,2,2,2,2,2,2,2,1,1,3,3,5,5,5,
5,5,5,3,1,1,2,2,2,2,2,2,2,2,2,2,2,2,2,2,2,2,2,2,2,2,2,2,2,2,2,2,2,2,2,2,2,2,2,2,2,2,2,2,2,2,2,2,2,2,2,2,2,2,1,1,3,5,5,5,
5,5,3,1,1,1,2,2,2,2,2,2,2,2,2,1,1,1,1,1,1,1,1,1,1,1,1,1,1,1,1,1,1,1,1,1,1,1,1,1,1,1,1,1,1,2,2,2,2,2,2,2,2,2,1,1,1,3,5,5,
5,5,3,1,1,2,2,2,2,2,2,2,2,1,1,1,1,1,1,1,1,1,1,1,1,1,1,1,1,1,1,1,1,1,1,1,1,1,1,1,1,1,1,1,1,1,1,2,2,2,2,2,2,2,2,1,1,3,5,5,
5,3,1,1,2,2,2,2,2,2,2,2,1,1,1,3,3,3,3,3,3,3,3,3,3,3,3,3,3,3,3,3,3,3,3,3,3,3,3,3,3,3,3,3,3,1,1,1,2,2,2,2,2,2,2,2,1,1,3,5,
5,3,1,1,2,2,2,2,2,2,2,1,1,1,3,3,5,5,5,5,5,5,5,5,5,5,5,5,5,5,5,5,5,5,5,5,5,5,5,5,5,5,5,5,3,3,1,1,1,2,2,2,2,2,2,2,1,1,3,5,
5,3,1,1,2,2,2,2,2,2,1,1,1,3,5,5,5,5,5,5,5,5,5,5,5,5,5,5,5,5,5,5,5,5,5,5,5,5,5,5,5,5,5,5,5,5,3,1,1,1,2,2,2,2,2,2,1,1,3,5,
3,1,1,2,2,2,2,2,2,2,1,1,3,5,5,5,5,5,5,5,5,5,5,5,5,5,5,5,5,5,5,5,5,5,5,5,5,5,5,5,5,5,5,5,5,5,5,3,1,1,2,2,2,2,2,2,2,1,1,3,
3,1,1,2,2,2,2,2,2,1,1,3,3,5,5,5,5,5,5,5,5,5,5,5,5,5,5,5,5,5,5,5,5,5,5,5,5,5,5,5,5,5,5,5,5,5,5,3,3,1,1,2,2,2,2,2,2,1,1,3,
3,1,1,2,2,2,2,2,2,1,1,3,5,5,5,5,5,5,5,5,5,5,5,5,5,5,5,5,5,5,5,5,5,5,5,5,5,5,5,5,5,5,5,5,5,5,5,5,3,1,1,2,2,2,2,2,2,1,1,3,
3,1,1,2,2,2,2,2,2,1,1,3,5,5,5,5,5,5,5,5,5,5,5,5,5,5,5,5,5,5,5,5,5,5,5,5,5,5,5,5,5,5,5,5,5,5,5,5,3,1,1,2,2,2,2,2,2,1,1,3,
3,1,1,2,2,2,2,2,2,1,1,3,5,5,5,5,5,5,5,5,5,5,5,5,5,5,5,5,5,5,5,5,5,5,5,5,5,5,5,5,5,5,5,5,5,5,5,5,3,1,1,2,2,2,2,2,2,1,1,3,
3,1,1,2,2,2,2,2,2,1,1,3,5,5,5,5,5,5,5,5,5,5,5,5,5,5,5,5,5,5,5,5,5,5,5,5,5,5,5,5,5,5,5,5,5,5,5,5,3,1,1,2,2,2,2,2,2,1,1,3,
3,1,1,2,2,2,2,2,2,1,1,3,3,5,5,5,5,5,5,5,5,5,5,5,5,5,5,5,5,5,5,5,5,5,5,5,5,5,5,5,5,5,5,5,5,5,5,3,3,1,1,2,2,2,2,2,2,1,1,3,
3,1,1,2,2,2,2,2,2,2,1,1,3,5,5,5,5,5,5,5,5,5,5,5,5,5,5,5,5,5,5,5,5,5,5,5,5,5,5,5,5,5,5,5,5,5,5,3,1,1,2,2,2,2,2,2,2,1,1,3,
5,3,1,1,2,2,2,2,2,2,1,1,1,3,5,5,5,5,5,5,5,5,5,5,5,5,5,5,5,5,5,5,5,5,5,5,5,5,5,5,5,5,5,5,5,5,3,1,1,1,2,2,2,2,2,2,1,1,3,5,
5,3,1,1,2,2,2,2,2,2,2,1,1,1,3,3,5,5,5,5,5,5,5,5,5,5,5,5,5,5,5,5,5,5,5,5,5,5,5,5,5,5,5,5,3,3,1,1,1,2,2,2,2,2,2,2,1,1,3,5,
5,3,1,1,2,2,2,2,2,2,2,2,1,1,1,3,3,3,3,3,3,3,3,3,3,3,3,3,3,3,3,3,3,3,3,3,3,3,3,3,3,3,3,3,3,1,1,1,2,2,2,2,2,2,2,2,1,1,3,5,
5,5,3,1,1,2,2,2,2,2,2,2,2,1,1,1,1,1,1,1,1,1,1,1,1,1,1,1,1,1,1,1,1,1,1,1,1,1,1,1,1,1,1,1,1,1,1,2,2,2,2,2,2,2,2,1,1,3,5,5,
5,5,3,1,1,1,2,2,2,2,2,2,2,2,2,1,1,1,1,1,1,1,1,1,1,1,1,1,1,1,1,1,1,1,1,1,1,1,1,1,1,1,1,1,1,2,2,2,2,2,2,2,2,2,1,1,1,3,5,5,
5,5,5,3,1,1,2,2,2,2,2,2,2,2,2,2,2,2,2,2,2,2,2,2,2,2,2,2,2,2,4,2,2,2,2,2,2,2,2,2,2,2,2,2,2,2,2,2,2,2,2,2,2,2,1,1,3,5,5,5,
5,5,5,3,3,1,1,2,2,2,2,2,2,2,2,2,2,2,2,2,2,2,2,2,2,2,2,2,2,2,4,2,2,2,2,2,2,2,2,2,2,2,2,2,2,2,2,2,2,2,2,2,2,1,1,3,3,5,5,5,
5,5,5,5,3,1,1,1,2,2,2,2,2,2,2,2,2,2,2,2,2,2,2,2,2,2,2,2,2,2,4,2,2,2,2,2,2,2,2,2,2,2,2,2,2,2,2,2,2,2,2,2,1,1,1,3,5,5,5,5,
5,5,5,5,5,3,1,1,1,1,2,2,2,2,2,2,2,2,2,2,2,2,2,2,2,2,2,2,2,2,4,2,2,2,2,2,2,2,2,2,2,2,2,2,2,2,2,2,2,2,1,1,1,1,3,5,5,5,5,5,
5,5,5,5,5,5,3,3,1,1,1,2,2,2,2,2,2,2,2,2,2,2,2,2,2,2,2,2,2,2,4,2,2,2,2,2,2,2,2,2,2,2,2,2,2,2,2,2,2,1,1,1,3,3,5,5,5,5,5,5,
5,5,5,5,5,5,5,3,3,1,1,1,1,1,2,2,2,2,2,2,2,2,2,2,2,2,2,2,2,2,4,2,2,2,2,2,2,2,2,2,2,2,2,2,2,2,1,1,1,1,1,3,3,5,5,5,5,5,5,5,
5,5,5,5,5,5,5,5,5,3,3,1,1,1,1,1,1,1,1,1,1,1,1,1,1,1,1,1,1,1,1,1,1,1,1,1,1,1,1,1,1,1,1,1,1,1,1,1,1,3,3,5,5,5,5,5,5,5,5,5,
5,5,5,5,5,5,5,5,5,5,5,3,3,3,1,1,1,1,1,1,1,1,1,1,1,1,1,1,1,1,1,1,1,1,1,1,1,1,1,1,1,1,1,1,1,1,3,3,3,5,5,5,5,5,5,5,5,5,5,5,
5,5,5,5,5,5,5,5,5,5,5,5,5,5,3,3,3,3,3,3,3,3,3,3,3,3,3,3,3,3,3,3,3,3,3,3,3,3,3,3,3,3,3,3,3,3,5,5,5,5,5,5,5,5,5,5,5,5,5,5,
5,5,5,5,5,5,5,5,5,5,5,5,5,5,5,5,5,5,5,5,5,5,5,5,5,5,5,5,5,5,5,5,5,5,5,5,5,5,5,5,5,5,5,5,5,5,5,5,5,5,5,5,5,5,5,5,5,5,5,5,
5,5,5,5,5,5,5,5,5,5,5,5,5,5,5,5,5,5,5,5,5,5,5,5,5,5,5,5,5,5,5,5,5,5,5,5,5,5,5,5,5,5,5,5,5,5,5,5,5,5,5,5,5,5,5,5,5,5,5,5
</data>
 </layer>
 <objectgroup id="2" name="checkpoints">
  <object id="1" x="944" y="864" width="64" height="320">
   <properties>
    <property name="orden" type="int" value="0"/>
   </properties>
  </object>
  <object id="2" x="1494.39" y="790.392" width="242.274" height="242.274">
   <properties>
    <property name="orden" type="int" value="1"/>
   </properties>
  </object>
  <object id="3" x="1568" y="608" width="320" height="64">
   <properties>
    <property name="orden" type="int" value="2"/>
   </properties>
  </object>
  <object id="4" x="1494.39" y="247.334" width="242.274" height="242.274">
   <properties>
    <property name="orden" type="int" value="3"/>
   </properties>
  </object>
  <object id="5" x="1120" y="96" width="64" height="320">
   <properties>
    <property name="orden" type="int" value="4"/>
   </properties>
  </object>
  <object id="6" x="736" y="96" width="64" height="320">
   <properties>
    <property name="orden" type="int" value="5"/>
   </properties>
  </object>
  <object id="7" x="183.334" y="247.334" width="242.274" height="242.274">
   <properties>
    <property name="orden" type="int" value="6"/>
   </properties>
  </object>
  <object id="8" x="32" y="608" width="320" height="64">
   <properties>
    <property name="orden" type="int" value="7"/>
   </properties>
  </object>
  <object id="9" x="183.334" y="790.392" width="242.274" height="242.274">
   <properties>
    <property name="orden" type="int" value="8"/>
   </properties>
  </object>
  <object id="10" x="672" y="864" width="64" height="320">
   <properties>
    <property name="orden" type="int" value="9"/>
   </properties>
  </object>
 </objectgroup>
 <objectgroup id="3" name="largada">
  <object id="11" x="888" y="984" width="16" height="16">
   <properties>
    <property name="posicion" type="int" value="1"/>
   </properties>
  </object>
  <object id="12" x="888" y="1064" width="16" height="16">
   <properties>
    <property name="posicion" type="int" value="2"/>
   </properties>
  </object>
  <object id="13" x="808" y="984" width="16" height="16">
   <properties>
    <property name="posicion" type="int" value="3"/>
   </properties>
  </object>
  <object id="14" x="808" y="1064" width="16" height="16">
   <properties>
    <property name="posicion" type="int" value="4"/>
   </properties>
  </object>
  <object id="15" x="728" y="984" width="16" height="16">
   <properties>
    <property name="posicion" type="int" value="5"/>
   </properties>
  </object>
 </objectgroup>
</map>
